X: 28479
T: Muñeira De Rengos
R: jig
M: 6/8
K: Dmajor
DFA|:ded cBA|F2 D DFA|ded cBA|G3 EFG|
ABA GFG|F2 E EFG|ABA GFE|1 D3 DFA:|2 D3 F2E||
|:D3 D3|E3 EFG|ABA GFE|F2 D F2E|
D3 D3|E3 EFG|ABA GFE|1 D3 F2E:|2 D3||

